X:78
T:The Big Bouncy Bag o' Bunny Luv
R:polka
C: 1995, 2010 L.E. McCullough 
M:2/4
L:1/8
K:D
|:A>d fd|g>a ge|A>d fd|e>d (3cBA|A>d fd|B>e ga|fA ce|ed d2:|
|:ce Ae|fA gA|af gf|e>d (3cBA|ce Ae|fA gA|aA ce|ed d2:|
|:~f3d|(3ABd fd|~g3b|ag fe|~f3d|(3ABd fd|(3Bcd (3cde|ed d2:|
|F>A dF|GB dg|fe a>g|fd c/B/A/G/|F>A dF|GB dg|aA bz/ g/|ed d2:|
<end>
<start>
